SVG_Azure_All/Event Grid Partner Namespace.svg

<?xml version="1.0" encoding="UTF-8" standalone="no"?>
<!-- Generated by Microsoft Visio, SVG Export Event Grid Partner Namespace.svg Page-1 -->

<svg
   xmlns:dc="http://purl.org/dc/elements/1.1/"
   xmlns:cc="http://creativecommons.org/ns#"
   xmlns:rdf="http://www.w3.org/1999/02/22-rdf-syntax-ns#"
   xmlns:svg="http://www.w3.org/2000/svg"
   xmlns="http://www.w3.org/2000/svg"
   xmlns:sodipodi="http://sodipodi.sourceforge.net/DTD/sodipodi-0.dtd"
   xmlns:inkscape="http://www.inkscape.org/namespaces/inkscape"
   width="0.78747237in"
   height="0.70866781in"
   viewBox="0 0 56.698172 51.024067"
   xml:space="preserve"
   class="st7"
   version="1.1"
   id="svg95"
   sodipodi:docname="Event Grid Partner Namespace.svg"
   style="font-size:12px;overflow:visible;color-interpolation-filters:sRGB;fill:none;fill-rule:evenodd;stroke-linecap:square;stroke-miterlimit:3"
   inkscape:version="0.92.5 (2060ec1f9f, 2020-04-08)"><metadata
   id="metadata99"><rdf:RDF><cc:Work
       rdf:about=""><dc:format>image/svg+xml</dc:format><dc:type
         rdf:resource="http://purl.org/dc/dcmitype/StillImage" /></cc:Work></rdf:RDF></metadata><sodipodi:namedview
   pagecolor="#ffffff"
   bordercolor="#666666"
   borderopacity="1"
   objecttolerance="10"
   gridtolerance="10"
   guidetolerance="10"
   inkscape:pageopacity="0"
   inkscape:pageshadow="2"
   inkscape:window-width="640"
   inkscape:window-height="480"
   id="namedview97"
   showgrid="false"
   inkscape:zoom="1.4869072"
   inkscape:cx="37.796554"
   inkscape:cy="34.006304"
   inkscape:window-x="0"
   inkscape:window-y="0"
   inkscape:window-maximized="0"
   inkscape:current-layer="svg95" />
	<style
   type="text/css"
   id="style2">
	<![CDATA[
		.st1 {fill:#a3a3a3;stroke:none;stroke-linecap:butt;stroke-width:34}
		.st2 {fill:#a3a3a3;fill-opacity:0.5;stroke:none;stroke-linecap:butt;stroke-width:34}
		.st3 {fill:#949494;stroke:none;stroke-linecap:butt;stroke-width:34}
		.st4 {fill:#0078d4;stroke:none;stroke-linecap:butt;stroke-width:34}
		.st5 {fill:#5ea0ef;stroke:none;stroke-linecap:butt;stroke-width:34}
		.st6 {fill:url(#grad0-30);stroke:none;stroke-linecap:butt;stroke-width:34}
		.st7 {fill:none;fill-rule:evenodd;font-size:12px;overflow:visible;stroke-linecap:square;stroke-miterlimit:3}
	]]>
	</style>

	<defs
   id="Patterns_And_Gradients">
		<linearGradient
   id="grad0-30"
   x1="0"
   y1="107.54099"
   x2="10.890247"
   y2="107.54099"
   gradientTransform="scale(0.99489381,1.0051324)"
   gradientUnits="userSpaceOnUse">
			<stop
   offset="0"
   stop-color="#773adc"
   stop-opacity="1"
   id="stop4" />
			<stop
   offset="1"
   stop-color="#a67af4"
   stop-opacity="1"
   id="stop6" />
		</linearGradient>
	</defs>
	<g
   id="g93"
   transform="translate(-34.000005,-34.000263)">
		<title
   id="title10">Page-1</title>
		<g
   id="group5271-1"
   transform="translate(34.002,-34.0157)">
			<title
   id="title12">Event Grid Partner Namespace</title>
			<g
   id="group5272-2">
				<title
   id="title14">Sheet.5272</title>
				<g
   id="shape5273-3"
   transform="translate(0,-37.9901)">
					<title
   id="title16">Sheet.5273</title>
					<path
   d="m 1.93,106.03 h 4.29 v 12.04 a 0.96378,0.973697 0 0 1 -0.96378,0.9737 L 0.97,119.04 A 0.96378,0.973697 0 0 1 0.003071,118.0663 L 0,107.98 a 1.88976,1.90921 0 0 1 1.86,-1.95 z"
   class="st1"
   id="path18"
   inkscape:connector-curvature="0"
   style="fill:#a3a3a3;stroke:none;stroke-width:34;stroke-linecap:butt" />
				</g>
				<g
   id="shape5274-5"
   transform="translate(0,-37.9901)">
					<title
   id="title21">Sheet.5274</title>
					<path
   d="m 1.93,106.03 h 4.29 v 12.04 a 0.96378,0.973697 0 0 1 -0.96378,0.9737 L 0.97,119.04 A 0.96378,0.973697 0 0 1 0.003071,118.0663 L 0,107.98 a 1.88976,1.90921 0 0 1 1.86,-1.95 z"
   class="st2"
   id="path23"
   inkscape:connector-curvature="0"
   style="fill:#a3a3a3;fill-opacity:0.5;stroke:none;stroke-width:34;stroke-linecap:butt" />
				</g>
				<g
   id="shape5275-7"
   transform="translate(50.4724,-37.9964)">
					<title
   id="title26">Sheet.5275</title>
					<path
   d="m 0,106.04 h 4.29 a 1.88976,1.90921 0 0 1 1.89,1.91 v 10.12 a 0.96378,0.973697 0 0 1 -0.96378,0.9737 L 0.96,119.04 a 0.96378,0.973697 0 0 1 -0.96378,-0.9737 z"
   class="st1"
   id="path28"
   inkscape:connector-curvature="0"
   style="fill:#a3a3a3;stroke:none;stroke-width:34;stroke-linecap:butt" />
				</g>
				<g
   id="shape5276-9"
   transform="translate(50.4724,-37.9964)">
					<title
   id="title31">Sheet.5276</title>
					<path
   d="m 0,106.04 h 4.29 a 1.88976,1.90921 0 0 1 1.89,1.91 v 10.12 a 0.96378,0.973697 0 0 1 -0.96378,0.9737 L 0.96,119.04 a 0.96378,0.973697 0 0 1 -0.96378,-0.9737 z"
   class="st2"
   id="path33"
   inkscape:connector-curvature="0"
   style="fill:#a3a3a3;fill-opacity:0.5;stroke:none;stroke-width:34;stroke-linecap:butt" />
				</g>
				<g
   id="shape5277-11"
   transform="translate(0.100787,-44.9142)">
					<title
   id="title36">Sheet.5277</title>
					<path
   d="m 56.56,114.84 v 4.2 H 0 v -4.2 a 1.88976,1.90921 0 0 1 1.89,-1.91 h 52.77 a 1.88976,1.90921 0 0 1 1.9,1.91 z"
   class="st3"
   id="path38"
   inkscape:connector-curvature="0"
   style="fill:#949494;stroke:none;stroke-width:34;stroke-linecap:butt" />
				</g>
				<g
   id="shape5278-13"
   transform="translate(0,-0.00318202)">
					<title
   id="title41">Sheet.5278</title>
					<path
   d="m 0.97,105.93 h 4.29 a 0.96378,0.973697 0 0 1 0.96378,0.9737 L 6.22,119.04 H 1.93 A 1.88976,1.90921 0 0 1 0,117.15 v -10.18 a 0.96378,0.973697 0 0 1 0.897638,-1.03416 z"
   class="st1"
   id="path43"
   inkscape:connector-curvature="0"
   style="fill:#a3a3a3;stroke:none;stroke-width:34;stroke-linecap:butt" />
				</g>
				<g
   id="shape5279-15"
   transform="translate(0,-0.00318202)">
					<title
   id="title46">Sheet.5279</title>
					<path
   d="m 0.97,105.93 h 4.29 a 0.96378,0.973697 0 0 1 0.96378,0.9737 L 6.22,119.04 H 1.93 A 1.88976,1.90921 0 0 1 0,117.15 v -10.18 a 0.96378,0.973697 0 0 1 0.897638,-1.03416 z"
   class="st2"
   id="path48"
   inkscape:connector-curvature="0"
   style="fill:#a3a3a3;fill-opacity:0.5;stroke:none;stroke-width:34;stroke-linecap:butt" />
				</g>
				<g
   id="shape5280-17"
   transform="translate(50.4724,-0.162283)">
					<title
   id="title51">Sheet.5280</title>
					<path
   d="m 0.96,106.09 h 4.3 a 0.96378,0.973697 0 0 1 0.96378,0.95461 L 6.22,117.13 a 1.88976,1.90921 0 0 1 -1.89,1.91 H 0 v -11.93 a 0.96378,0.973697 0 0 1 0.894488,-1.04052 z"
   class="st1"
   id="path53"
   inkscape:connector-curvature="0"
   style="fill:#a3a3a3;stroke:none;stroke-width:34;stroke-linecap:butt" />
				</g>
				<g
   id="shape5281-19"
   transform="translate(50.4724,-0.162283)">
					<title
   id="title56">Sheet.5281</title>
					<path
   d="m 0.96,106.09 h 4.3 a 0.96378,0.973697 0 0 1 0.96378,0.95461 L 6.22,117.13 a 1.88976,1.90921 0 0 1 -1.89,1.91 H 0 v -11.93 a 0.96378,0.973697 0 0 1 0.894488,-1.04052 z"
   class="st2"
   id="path58"
   inkscape:connector-curvature="0"
   style="fill:#a3a3a3;fill-opacity:0.5;stroke:none;stroke-width:34;stroke-linecap:butt" />
				</g>
				<g
   id="shape5282-21">
					<title
   id="title61">Sheet.5282</title>
					<path
   d="m 0,117.11 v -4.18 h 56.56 v 4.2 a 1.88976,1.90921 0 0 1 -1.89,1.91 H 1.89 A 1.88976,1.90921 0 0 1 0,117.11 Z"
   class="st3"
   id="path63"
   inkscape:connector-curvature="0"
   style="fill:#949494;stroke:none;stroke-width:34;stroke-linecap:butt" />
				</g>
				<g
   id="shape5283-23"
   transform="translate(13.8047,-11.0861)">
					<title
   id="title66">Sheet.5283</title>
					<path
   d="m 29.26,105.91 v -2.53 H 13.63 V 92.71 H 26.66 V 90.18 H 13.63 a 2.51969,2.54561 -180 0 0 -2.51,2.55 v 10.65 H 0 v 2.54 h 11.15 v 10.59 a 2.51969,2.54561 -180 0 0 2.52,2.53 h 13.01 v -2.53 H 13.65 v -10.6 z"
   class="st4"
   id="path68"
   inkscape:connector-curvature="0"
   style="fill:#0078d4;stroke:none;stroke-width:34;stroke-linecap:butt" />
				</g>
				<g
   id="shape5284-25"
   transform="translate(40.4063,-21.7554)">
					<title
   id="title71">Sheet.5284</title>
					<ellipse
   cx="3.8204701"
   cy="115.18"
   rx="3.8204701"
   ry="3.8597901"
   class="st5"
   id="ellipse73"
   style="fill:#5ea0ef;stroke:none;stroke-width:34;stroke-linecap:butt" />
				</g>
				<g
   id="shape5285-27"
   transform="translate(6.88819,-20.0212)">
					<title
   id="title76">Sheet.5285</title>
					<ellipse
   cx="5.4173198"
   cy="113.566"
   rx="5.4173198"
   ry="5.4730701"
   class="st6"
   id="ellipse78"
   style="fill:url(#grad0-30);stroke:none;stroke-width:34;stroke-linecap:butt" />
				</g>
				<g
   id="shape5286-31"
   transform="translate(36.9575,-8.38779)">
					<title
   id="title81">Sheet.5286</title>
					<ellipse
   cx="3.8204701"
   cy="115.18"
   rx="3.8204701"
   ry="3.8597901"
   class="st5"
   id="ellipse83"
   style="fill:#5ea0ef;stroke:none;stroke-width:34;stroke-linecap:butt" />
				</g>
				<g
   id="shape5287-33"
   transform="translate(36.9575,-34.9322)">
					<title
   id="title86">Sheet.5287</title>
					<ellipse
   cx="3.8204701"
   cy="115.18"
   rx="3.8204701"
   ry="3.8597901"
   class="st5"
   id="ellipse88"
   style="fill:#5ea0ef;stroke:none;stroke-width:34;stroke-linecap:butt" />
				</g>
			</g>
		</g>
	</g>
</svg>

<?xml version="1.0" encoding="UTF-8" standalone="no"?>
<!DOCTYPE svg PUBLIC "-//W3C//DTD SVG 1.1//EN" "http://www.w3.org/Graphics/SVG/1.1/DTD/svg11.dtd">
<!-- Generated by Microsoft Visio, SVG Export Event Grid Partner Namespace.svg Page-1 -->
<svg xmlns="http://www.w3.org/2000/svg" xmlns:xlink="http://www.w3.org/1999/xlink" xmlns:ev="http://www.w3.org/2001/xml-events"
		width="1.73187in" height="1.65332in" viewBox="0 0 124.695 119.039" xml:space="preserve" color-interpolation-filters="sRGB"
		class="st7">
	<style type="text/css">
	<![CDATA[
		.st1 {fill:#a3a3a3;stroke:none;stroke-linecap:butt;stroke-width:34}
		.st2 {fill:#a3a3a3;fill-opacity:0.5;stroke:none;stroke-linecap:butt;stroke-width:34}
		.st3 {fill:#949494;stroke:none;stroke-linecap:butt;stroke-width:34}
		.st4 {fill:#0078d4;stroke:none;stroke-linecap:butt;stroke-width:34}
		.st5 {fill:#5ea0ef;stroke:none;stroke-linecap:butt;stroke-width:34}
		.st6 {fill:url(#grad0-30);stroke:none;stroke-linecap:butt;stroke-width:34}
		.st7 {fill:none;fill-rule:evenodd;font-size:12px;overflow:visible;stroke-linecap:square;stroke-miterlimit:3}
	]]>
	</style>

	<defs id="Patterns_And_Gradients">
		<linearGradient id="grad0-30" x1="0" y1="0" x2="1" y2="0" gradientTransform="rotate(-90 0.5 0.5)">
			<stop offset="0" stop-color="#773adc" stop-opacity="1"/>
			<stop offset="1" stop-color="#a67af4" stop-opacity="1"/>
		</linearGradient>
	</defs>
	<g>
		<title>Page-1</title>
		<g id="group5165-1" transform="translate(34.002,-34.0157)">
			<title>Event Grid Partner Namespace</title>
			<g id="group5166-2">
				<title>Sheet.5166</title>
				<g id="shape5167-3" transform="translate(-5.64548E-14,-37.9901)">
					<title>Sheet.5167</title>
					<path d="M1.93 106.03 L6.22 106.03 L6.22 118.07 a0.96378 0.973697 0 0 1 -0.96378 0.973697 L0.97 119.04 a0.96378
								 0.973697 0 0 1 -0.966929 -0.973697 L0 107.98 A1.88976 1.90921 0 0 1 1.86 106.03 L1.93 106.03 Z"
							class="st1"/>
				</g>
				<g id="shape5168-5" transform="translate(-5.64548E-14,-37.9901)">
					<title>Sheet.5168</title>
					<path d="M1.93 106.03 L6.22 106.03 L6.22 118.07 a0.96378 0.973697 0 0 1 -0.96378 0.973697 L0.97 119.04 a0.96378
								 0.973697 0 0 1 -0.966929 -0.973697 L0 107.98 A1.88976 1.90921 0 0 1 1.86 106.03 L1.93 106.03 Z"
							class="st2"/>
				</g>
				<g id="shape5169-7" transform="translate(50.4724,-37.9964)">
					<title>Sheet.5169</title>
					<path d="M0 106.04 L4.29 106.04 A1.88976 1.90921 0 0 1 6.18 107.95 L6.18 118.07 a0.96378 0.973697 0 0 1 -0.96378
								 0.973697 L0.96 119.04 a0.96378 0.973697 0 0 1 -0.96378 -0.973697 L0 106.04 Z" class="st1"/>
				</g>
				<g id="shape5170-9" transform="translate(50.4724,-37.9964)">
					<title>Sheet.5170</title>
					<path d="M0 106.04 L4.29 106.04 A1.88976 1.90921 0 0 1 6.18 107.95 L6.18 118.07 a0.96378 0.973697 0 0 1 -0.96378
								 0.973697 L0.96 119.04 a0.96378 0.973697 0 0 1 -0.96378 -0.973697 L0 106.04 Z" class="st2"/>
				</g>
				<g id="shape5171-11" transform="translate(0.100787,-44.9142)">
					<title>Sheet.5171</title>
					<path d="M56.56 114.84 L56.56 119.04 L0 119.04 L0 114.84 A1.88976 1.90921 0 0 1 1.89 112.93 L54.66 112.93 A1.88976
								 1.90921 0 0 1 56.56 114.84 Z" class="st3"/>
				</g>
				<g id="shape5172-13" transform="translate(-5.64548E-14,-0.00318202)">
					<title>Sheet.5172</title>
					<path d="M0.97 105.93 L5.26 105.93 a0.96378 0.973697 0 0 1 0.96378 0.973697 L6.22 119.04 L1.93 119.04 A1.88976
								 1.90921 0 0 1 0 117.15 L0 106.97 a0.96378 0.973697 0 0 1 0.897638 -1.03416 L0.97 105.93 Z"
							class="st1"/>
				</g>
				<g id="shape5173-15" transform="translate(-5.64548E-14,-0.00318202)">
					<title>Sheet.5173</title>
					<path d="M0.97 105.93 L5.26 105.93 a0.96378 0.973697 0 0 1 0.96378 0.973697 L6.22 119.04 L1.93 119.04 A1.88976
								 1.90921 0 0 1 0 117.15 L0 106.97 a0.96378 0.973697 0 0 1 0.897638 -1.03416 L0.97 105.93 Z"
							class="st2"/>
				</g>
				<g id="shape5174-17" transform="translate(50.4724,-0.162283)">
					<title>Sheet.5174</title>
					<path d="M0.96 106.09 L5.26 106.09 a0.96378 0.973697 0 0 1 0.96378 0.954605 L6.22 117.13 A1.88976 1.90921 0 0
								 1 4.33 119.04 L0 119.04 L0 107.11 a0.96378 0.973697 0 0 1 0.894488 -1.04052 L0.96 106.09 Z"
							class="st1"/>
				</g>
				<g id="shape5175-19" transform="translate(50.4724,-0.162283)">
					<title>Sheet.5175</title>
					<path d="M0.96 106.09 L5.26 106.09 a0.96378 0.973697 0 0 1 0.96378 0.954605 L6.22 117.13 A1.88976 1.90921 0 0
								 1 4.33 119.04 L0 119.04 L0 107.11 a0.96378 0.973697 0 0 1 0.894488 -1.04052 L0.96 106.09 Z"
							class="st2"/>
				</g>
				<g id="shape5176-21">
					<title>Sheet.5176</title>
					<path d="M0 117.11 L0 112.93 L56.56 112.93 L56.56 117.13 A1.88976 1.90921 0 0 1 54.67 119.04 L1.89 119.04 A1.88976
								 1.90921 0 0 1 -0 117.11 Z" class="st3"/>
				</g>
				<g id="shape5177-23" transform="translate(13.8047,-11.0861)">
					<title>Sheet.5177</title>
					<path d="M29.26 105.91 L29.26 103.38 L13.63 103.38 L13.63 92.71 L26.66 92.71 L26.66 90.18 L13.63 90.18 A2.51969
								 2.54561 -180 0 0 11.12 92.73 L11.12 103.38 L0 103.38 L0 105.92 L11.15 105.92 L11.15 116.51 A2.51969
								 2.54561 -180 0 0 13.67 119.04 L26.68 119.04 L26.68 116.51 L13.65 116.51 L13.65 105.91 L29.26 105.91
								 Z" class="st4"/>
				</g>
				<g id="shape5178-25" transform="translate(40.4063,-21.7554)">
					<title>Sheet.5178</title>
					<ellipse cx="3.82047" cy="115.18" rx="3.82047" ry="3.85979" class="st5"/>
				</g>
				<g id="shape5179-27" transform="translate(6.88819,-20.0212)">
					<title>Sheet.5179</title>
					<ellipse cx="5.41732" cy="113.566" rx="5.41732" ry="5.47307" class="st6"/>
				</g>
				<g id="shape5180-31" transform="translate(36.9575,-8.38779)">
					<title>Sheet.5180</title>
					<ellipse cx="3.82047" cy="115.18" rx="3.82047" ry="3.85979" class="st5"/>
				</g>
				<g id="shape5181-33" transform="translate(36.9575,-34.9322)">
					<title>Sheet.5181</title>
					<ellipse cx="3.82047" cy="115.18" rx="3.82047" ry="3.85979" class="st5"/>
				</g>
			</g>
		</g>
	</g>
</svg>
